images_Kids_svg/cmd/sc_color.svg

<?xml version="1.0" encoding="UTF-8" standalone="no"?>
<svg
   xmlns:dc="http://purl.org/dc/elements/1.1/"
   xmlns:cc="http://creativecommons.org/ns#"
   xmlns:rdf="http://www.w3.org/1999/02/22-rdf-syntax-ns#"
   xmlns:svg="http://www.w3.org/2000/svg"
   xmlns="http://www.w3.org/2000/svg"
   xmlns:sodipodi="http://sodipodi.sourceforge.net/DTD/sodipodi-0.dtd"
   xmlns:inkscape="http://www.inkscape.org/namespaces/inkscape"
   width="16px"
   height="16px"
   viewBox="0 0 16 16"
   version="1.1"
   id="svg11"
   sodipodi:docname="sc_color.svg"
   inkscape:version="0.92.4 (5da689c313, 2019-01-14)">
  <metadata
     id="metadata17">
    <rdf:RDF>
      <cc:Work
         rdf:about="">
        <dc:format>image/svg+xml</dc:format>
        <dc:type
           rdf:resource="http://purl.org/dc/dcmitype/StillImage" />
      </cc:Work>
    </rdf:RDF>
  </metadata>
  <defs
     id="defs15" />
  <sodipodi:namedview
     pagecolor="#ffffff"
     bordercolor="#666666"
     borderopacity="1"
     objecttolerance="10"
     gridtolerance="10"
     guidetolerance="10"
     inkscape:pageopacity="0"
     inkscape:pageshadow="2"
     inkscape:window-width="640"
     inkscape:window-height="480"
     id="namedview13"
     showgrid="false"
     inkscape:zoom="35.5"
     inkscape:cx="10.983688"
     inkscape:cy="6.916185"
     inkscape:current-layer="svg11" />
  <path
     inkscape:connector-curvature="0"
     id="path2"
     d="m 0.15625,12.507812 h 15.6875 v 3.316407 H 0.15625 Z m 0,0"
     style="fill:#ff0000;fill-opacity:1;fill-rule:nonzero;stroke:none" />
  <path
     inkscape:connector-curvature="0"
     id="path4"
     d="m 3.4375,5.125 c 0.476562,0 0.976562,0.101562 1.507812,0.300781 0.257813,0.148438 0.386719,0.355469 0.386719,0.625 L 5.328125,6.117188 C 5.445312,6.234375 5.5,6.429688 5.5,6.703125 c 0.00781,0 0.00781,0.09375 0.00781,0.28125 0,0.179687 0,0.367187 -0.00391,0.554687 0.023438,1.074219 0.035156,1.679688 0.035156,1.824219 0,0.195313 -0.09375,0.371094 -0.277343,0.523438 C 5.136713,9.972656 5.0039,10.015625 4.863275,10.015625 4.671869,10.015625 4.5039,9.9375 4.355463,9.78125 L 4.347656,9.777344 C 3.941406,9.980469 3.550781,10.082031 3.179688,10.082031 H 3.066406 C 2.621094,10.082031 2.210938,9.9375 1.832031,9.652344 1.316406,9.21875 1.0625,8.609375 1.0625,7.816406 1.0625,6.90625 1.316406,6.203125 1.832031,5.699219 2.257812,5.316406 2.792969,5.125 3.4375,5.125 Z M 2.402344,7.804688 c 0,0.453124 0.121094,0.738281 0.359375,0.863281 0.097656,0.046875 0.214843,0.070312 0.355469,0.070312 H 3.125 c 0.285156,0 0.535156,-0.082031 0.746094,-0.25 C 3.917969,8.4375 3.964844,8.351562 4.011719,8.230469 4.109375,7.929688 4.160156,7.65625 4.160156,7.410156 4.160156,7.292969 4.15625,7.015625 4.148438,6.574219 3.886719,6.5 3.648438,6.464844 3.429688,6.464844 2.988281,6.464844 2.695312,6.625 2.554688,6.949219 2.453125,7.203125 2.402344,7.488281 2.402344,7.804688 Z m 0,0"
     style="fill:#c7f559;fill-opacity:1;fill-rule:nonzero;stroke:none" />
  <path
     inkscape:connector-curvature="0"
     id="path6"
     d="m 6.832031,1.902344 c 0.253907,0 0.453125,0.125 0.601563,0.375 0.046875,0.101562 0.070312,0.203125 0.070312,0.308594 v 0.6875 c 1.15625,0 1.980469,0.351562 2.46875,1.054687 0.242188,0.371094 0.363282,0.789063 0.363282,1.253906 v 0.0625 c 0,0.53125 -0.179688,1.003907 -0.535157,1.425781 -0.226562,0.226563 -0.402343,0.375 -0.53125,0.445313 C 8.601562,7.914062 7.789062,8.113281 6.84375,8.113281 H 6.832031 c -0.28125,0 -0.492187,-0.136719 -0.628906,-0.417969 C 6.164062,7.597656 6.144531,7.523438 6.144531,7.472656 6.15625,4.847656 6.164062,3.203125 6.164062,2.546875 c 0,-0.15625 0.066407,-0.308594 0.199219,-0.453125 0.140625,-0.128906 0.296875,-0.191406 0.46875,-0.191406 z m 0.664063,2.71875 c -0.00391,0.660156 -0.00391,1.171875 -0.00391,1.53125 v 0.574218 c 0.09375,0 0.3125,-0.050781 0.652343,-0.152343 C 8.53125,6.4375 8.785156,6.257812 8.898438,6.042969 8.964844,5.929688 9,5.78125 9,5.597656 9,5.1875 8.828125,4.914062 8.488281,4.78125 8.226562,4.671875 7.90625,4.613281 7.53125,4.613281 Z m 0,0"
     style="fill:#45ccc5;fill-opacity:1;fill-rule:nonzero;stroke:none" />
  <path
     inkscape:connector-curvature="0"
     id="path8"
     d="m 12.886719,4.847656 h 0.04687 c 0.554687,0 1.113281,0.1875 1.667968,0.554688 0.207032,0.15625 0.3125,0.34375 0.3125,0.570312 0,0.246094 -0.125,0.441406 -0.375,0.59375 -0.105468,0.046875 -0.210937,0.066406 -0.304687,0.066406 -0.15625,0 -0.316406,-0.058593 -0.476563,-0.183593 C 13.46875,6.273438 13.183594,6.1875 12.910156,6.1875 c -0.351562,0 -0.664062,0.144531 -0.941406,0.433594 -0.183594,0.21875 -0.277344,0.460937 -0.277344,0.726562 V 7.375 c 0,0.371094 0.160156,0.671875 0.476563,0.894531 0.246093,0.132813 0.5,0.199219 0.761719,0.199219 0.28125,0 0.550781,-0.09375 0.808593,-0.273438 0.109375,-0.0625 0.226563,-0.09375 0.34375,-0.09375 0.230469,0 0.421875,0.109376 0.574219,0.335938 0.05859,0.109375 0.08984,0.21875 0.08984,0.332031 0,0.316407 -0.210938,0.566407 -0.636719,0.757813 -0.375,0.1875 -0.761719,0.28125 -1.15625,0.28125 h -0.07031 c -0.488281,0 -0.976562,-0.140625 -1.460937,-0.425782 C 11.3125,9.3125 11.152344,9.175781 10.941406,8.964844 10.808594,8.796875 10.703125,8.644531 10.628906,8.507812 10.441406,8.121094 10.347656,7.765625 10.347656,7.441406 V 7.277344 c 0,-0.359375 0.109375,-0.734375 0.320313,-1.132813 0.07813,-0.152343 0.226562,-0.335937 0.441406,-0.558593 0.226563,-0.207032 0.433594,-0.355469 0.613281,-0.4375 0.378906,-0.199219 0.765625,-0.300782 1.164063,-0.300782 z m 0,0"
     style="fill:#ff6866;fill-opacity:1;fill-rule:nonzero;stroke:none" />
  <g
     inkscape:groupmode="layer"
     id="layer1"
     inkscape:label="Layer 1" />
</svg>

<?xml version="1.0" encoding="UTF-8"?>
<svg xmlns="http://www.w3.org/2000/svg" xmlns:xlink="http://www.w3.org/1999/xlink" width="16px" height="16px" viewBox="0 0 16 16" version="1.1">
<g id="surface1">
<path style=" stroke:none;fill-rule:nonzero;fill:rgb(100%,0%,0%);fill-opacity:1;" d="M 0.15625 12.507812 L 15.84375 12.507812 L 15.84375 15.824219 L 0.15625 15.824219 Z M 0.15625 12.507812 "/>
<path style=" stroke:none;fill-rule:nonzero;fill:rgb(78.039217%,96.470588%,35.294119%)F;fill-opacity:1;" d="M 3.4375 5.125 C 3.914062 5.125 4.414062 5.226562 4.945312 5.425781 C 5.203125 5.574219 5.332031 5.78125 5.332031 6.050781 L 5.328125 6.117188 C 5.445312 6.234375 5.5 6.429688 5.5 6.703125 C 5.507812 6.703125 5.507812 6.796875 5.507812 6.984375 C 5.507812 7.164062 5.507812 7.351562 5.503906 7.539062 C 5.527344 8.613281 5.539062 9.21875 5.539062 9.363281 C 5.539062 9.558594 5.445312 9.734375 5.261719 9.886719 C 5.136719 9.972656 5.003906 10.015625 4.863281 10.015625 C 4.671875 10.015625 4.503906 9.9375 4.355469 9.78125 L 4.347656 9.777344 C 3.941406 9.980469 3.550781 10.082031 3.179688 10.082031 L 3.066406 10.082031 C 2.621094 10.082031 2.210938 9.9375 1.832031 9.652344 C 1.316406 9.21875 1.0625 8.609375 1.0625 7.816406 C 1.0625 6.90625 1.316406 6.203125 1.832031 5.699219 C 2.257812 5.316406 2.792969 5.125 3.4375 5.125 Z M 2.402344 7.804688 C 2.402344 8.257812 2.523438 8.542969 2.761719 8.667969 C 2.859375 8.714844 2.976562 8.738281 3.117188 8.738281 L 3.125 8.738281 C 3.410156 8.738281 3.660156 8.65625 3.871094 8.488281 C 3.917969 8.4375 3.964844 8.351562 4.011719 8.230469 C 4.109375 7.929688 4.160156 7.65625 4.160156 7.410156 C 4.160156 7.292969 4.15625 7.015625 4.148438 6.574219 C 3.886719 6.5 3.648438 6.464844 3.429688 6.464844 C 2.988281 6.464844 2.695312 6.625 2.554688 6.949219 C 2.453125 7.203125 2.402344 7.488281 2.402344 7.804688 Z M 2.402344 7.804688 "/>
<path style=" stroke:none;fill-rule:nonzero;fill:rgb(27.843139%,80.392158%,77.64706%);fill-opacity:1;" d="M 6.832031 1.902344 C 7.085938 1.902344 7.285156 2.027344 7.433594 2.277344 C 7.480469 2.378906 7.503906 2.480469 7.503906 2.585938 L 7.503906 3.273438 C 8.660156 3.273438 9.484375 3.625 9.972656 4.328125 C 10.214844 4.699219 10.335938 5.117188 10.335938 5.582031 L 10.335938 5.644531 C 10.335938 6.175781 10.15625 6.648438 9.800781 7.070312 C 9.574219 7.296875 9.398438 7.445312 9.269531 7.515625 C 8.601562 7.914062 7.789062 8.113281 6.84375 8.113281 L 6.832031 8.113281 C 6.550781 8.113281 6.339844 7.976562 6.203125 7.695312 C 6.164062 7.597656 6.144531 7.523438 6.144531 7.472656 C 6.15625 4.847656 6.164062 3.203125 6.164062 2.546875 C 6.164062 2.390625 6.230469 2.238281 6.363281 2.09375 C 6.503906 1.964844 6.660156 1.902344 6.832031 1.902344 Z M 7.496094 4.621094 C 7.492188 5.28125 7.492188 5.792969 7.492188 6.152344 L 7.492188 6.726562 C 7.585938 6.726562 7.804688 6.675781 8.144531 6.574219 C 8.53125 6.4375 8.785156 6.257812 8.898438 6.042969 C 8.964844 5.929688 9 5.78125 9 5.597656 C 9 5.1875 8.828125 4.914062 8.488281 4.78125 C 8.226562 4.671875 7.90625 4.613281 7.53125 4.613281 Z M 7.496094 4.621094 "/>
<path style=" stroke:none;fill-rule:nonzero;fill:rgb(100%,41.568628%,40.000001%);fill-opacity:1;" d="M 12.886719 4.847656 L 12.933594 4.847656 C 13.488281 4.847656 14.046875 5.035156 14.601562 5.402344 C 14.808594 5.558594 14.914062 5.746094 14.914062 5.972656 C 14.914062 6.21875 14.789062 6.414062 14.539062 6.566406 C 14.433594 6.613281 14.328125 6.632812 14.234375 6.632812 C 14.078125 6.632812 13.917969 6.574219 13.757812 6.449219 C 13.46875 6.273438 13.183594 6.1875 12.910156 6.1875 C 12.558594 6.1875 12.246094 6.332031 11.96875 6.621094 C 11.785156 6.839844 11.691406 7.082031 11.691406 7.347656 L 11.691406 7.375 C 11.691406 7.746094 11.851562 8.046875 12.167969 8.269531 C 12.414062 8.402344 12.667969 8.46875 12.929688 8.46875 C 13.210938 8.46875 13.480469 8.375 13.738281 8.195312 C 13.847656 8.132812 13.964844 8.101562 14.082031 8.101562 C 14.3125 8.101562 14.503906 8.210938 14.65625 8.4375 C 14.714844 8.546875 14.746094 8.65625 14.746094 8.769531 C 14.746094 9.085938 14.535156 9.335938 14.109375 9.527344 C 13.734375 9.714844 13.347656 9.808594 12.953125 9.808594 L 12.882812 9.808594 C 12.394531 9.808594 11.90625 9.667969 11.421875 9.382812 C 11.3125 9.3125 11.152344 9.175781 10.941406 8.964844 C 10.808594 8.796875 10.703125 8.644531 10.628906 8.507812 C 10.441406 8.121094 10.347656 7.765625 10.347656 7.441406 L 10.347656 7.277344 C 10.347656 6.917969 10.457031 6.542969 10.667969 6.144531 C 10.746094 5.992188 10.894531 5.808594 11.109375 5.585938 C 11.335938 5.378906 11.542969 5.230469 11.722656 5.148438 C 12.101562 4.949219 12.488281 4.847656 12.886719 4.847656 Z M 12.886719 4.847656 "/>
</g>
</svg>
